X:1
T:Diesel and Shale
M:3/4
L:1/4
K:Eb
 z2 G3/4 G/4| G C C| E D C| F F F| G2 z/2 c/2| c c B| G F E| F G G|\
 C2 c| c c/2 B3/2| G3/2 F/2 E| F F F| G2 G| G C D| E G F| E C B,| C2 G,/2 G,/2|\
 C C C| C3| F G G| G2 B| c B G| F E C| E E D| C2 z|
